X:1
T: The Oslo Waltz
N:
C:
S:Tune is "The Star of County Down"
A:
O:
R:
M:3/4
K:Em
I:speed 150
%W: A1
% voice 1 (1 lines, 20 notes)
K:Em
M:3/4
L:1/16
D4 |E8 E4 |E4 D4 E4 |G8 G4 |A4 G4 A4 |B4 A4 G4 |E8 E4 |D12|D4 G4 F4 |
%W: A2
% voice 1 (1 lines, 19 notes)
E8 E4 |E4 D4 E4 |G8 G4 |A4 G4 A4 |B4 A4 G4 |E8 D4 |E12|E4 B4 c4 |
%W: B
% voice 1 (1 lines, 18 notes)
d8 B4 |B4 A4 G4 |A12 |A4 G4 A4 |B4 A4 G4 |E8 E4 |D12|D4 G4 F4 |
%W:
% voice 1 (1 lines, 17 notes)
E8 E4 |E4 D4 E4 |G8 G4 |A4 G4 A4 |B4 A4 G4 |E8 D4 |E12|D8 ||
